X:101
T:Belgarth Waltz
M:3/4
L:1/4
K:G
D/ G/A/|"G"B3/2 c/B|"D"A>GF|"C"E<G C|"G"D2 G/A/|B3/2 A/G|"Am"dcB|A3-|"D"A>D G/A/|!
"G"B3/2 c/B|"D"AGF|"C"E<G C|"G"D2D|"Am"E<G c|"D"AGF|"G"(G3"C"y|"G"G>G) B/c/|!
"G"d2d|"C"e2c|"G"B/(d/d2|d)>G B/c/|d>B d|"Am"e>d c/B/|"D"A3-|A2 G/F/|!
"C"E/G/-G2|"Em"D/G/-G2|"Am"C/G/-G2|"G"B,2 G/A/|B2 c/B/|"D"AGF|"G"G3-"C"y|"G"G2z|]

